src/images/tech-logos/gulp.svg

<svg height="387" viewBox="0 0 175 387" width="175" xmlns="http://www.w3.org/2000/svg"><g fill="#da4648" fill-rule="evenodd" transform="translate(0 1)"><path d="m86.72 303.739c-22.574 0-40.017-3.391-48.405-5.412-5.736-1.382-10.342-2.812-13.841-4.281l11.187 19.113 4.376 59.719c0 6.695 21.268 12.122 47.503 12.122s47.503-5.427 47.503-12.122l3.465-60.369 10.585-18.519c-3.514 1.489-8.161 2.938-13.969 4.337-8.388 2.021-25.831 5.412-48.404 5.412zm62.736-194.328c-16.568 2.314-38.557 3.589-61.916 3.589s-45.348-1.275-61.916-3.589c-8.207-1.146-14.7-2.498-19.299-4.016-1.097-.363-2.956-.982-4.745-1.968l10.265 94.473c.477-1.627 1.008-3.252 1.597-4.871 1.205-3.318 2.599-6.562 4.181-9.731 1.583-3.168 3.306-6.163 5.169-8.984 1.862-2.82 3.845-5.417 5.946-7.79 2.102-2.372 4.258-4.412 6.472-6.122 2.213-1.708 4.447-3.044 6.702-4.006 2.256-.962 4.49-1.444 6.703-1.444 2.549 0 5.015.697 7.397 2.091 2.381 1.393 4.607 3.65 6.681 6.769.476.697.778 1.402.903 2.115.127.714.189 1.386.189 2.016 0 1.493-.357 2.672-1.071 3.534-.714.863-1.562 1.294-2.542 1.294-.898 0-1.731-.473-2.501-1.418-.771-.946-1.632-2.298-2.585-4.057-.897-1.593-1.884-2.745-2.962-3.459-1.079-.713-2.248-1.07-3.509-1.07-1.961 0-4.055.813-6.282 2.439-2.228 1.625-4.434 3.774-6.618 6.445-2.186 2.672-4.28 5.724-6.283 9.159-2.003 3.434-3.776 6.951-5.317 10.551-1.541 3.602-2.765 7.153-3.676 10.653s-1.366 6.644-1.366 9.431c0 .93.064 1.885.189 2.862.127.98.364 1.867.715 2.664.349.797.826 1.451 1.428 1.964.603.516 1.366.772 2.29.772 1.037 0 2.213-.348 3.531-1.045 1.316-.695 2.682-1.609 4.096-2.736 1.415-1.129 2.837-2.406 4.266-3.834 1.43-1.426 2.76-2.869 3.992-4.33 1.232-1.459 2.325-2.862 3.277-4.205.953-1.344 1.667-2.514 2.144-3.51l3.908-11.697c.476-1.26 1.099-2.156 1.87-2.687.77-.531 1.562-.797 2.375-.797.391 0 .783.067 1.176.199.393.133.742.341 1.051.622.308.283.553.647.735 1.096.182.447.273.97.273 1.567 0 1.593-.14 3.085-.42 4.48s-.637 2.754-1.072 4.082c-.434 1.326-.918 2.662-1.45 4.006s-1.051 2.746-1.554 4.207c-.112.166-.315.687-.61 1.566-.294.881-.65 1.985-1.071 3.311-.42 1.328-.876 2.812-1.366 4.455-.491 1.643-.994 3.318-1.512 5.027-.519 1.709-1.016 3.385-1.492 5.028-.477 1.642-.905 3.127-1.282 4.455-.378 1.326-.693 2.437-.946 3.334-.252.896-.406 1.426-.462 1.594-.14.529-.365 1.119-.672 1.765-.308.647-.672 1.262-1.093 1.842-.42.58-.882 1.063-1.387 1.443-.504.381-1.022.573-1.555.573-.896 0-1.548-.299-1.953-.895-.407-.598-.609-1.693-.609-3.285v-.697c0-.233.013-.483.041-.746.027-.532.238-1.528.631-2.989.392-1.459.861-3.109 1.408-4.951.546-1.842 1.135-3.75 1.765-5.725.629-1.974 1.197-3.74 1.702-5.3-1.487 1.66-3.096 3.31-4.833 4.953-1.738 1.642-3.517 3.119-5.337 4.429-1.822 1.311-3.657 2.381-5.505 3.211-1.849.829-3.628 1.245-5.337 1.245-1.961 0-3.649-.432-5.065-1.295-.255-.157-.496-.332-.736-.506l5.712 59.888c1.487 3.727 29.481 12.884 66.391 12.884 36.927 0 64.932-9.166 66.393-12.89l8.205-71.202c-.679.623-1.34 1.232-1.972 1.822-2.354 2.189-4.575 4.072-6.662 5.648-2.086 1.576-4.125 2.797-6.114 3.658-1.99.864-4.119 1.295-6.388 1.295-2.129 0-3.776-.465-4.938-1.394-1.162-.928-1.744-2.205-1.744-3.832v-.373c0-.116.014-.258.043-.424.111-.994.547-2.141 1.303-3.434.756-1.295 1.666-2.638 2.73-4.031 1.065-1.394 2.199-2.805 3.404-4.232 1.205-1.426 2.319-2.778 3.342-4.057 1.022-1.275 1.869-2.445 2.541-3.508.674-1.062 1.01-1.924 1.01-2.588 0-.398-.141-.713-.42-.947-.281-.23-.744-.348-1.387-.348-1.121 0-2.277.291-3.466.871-1.192.58-2.37 1.362-3.532 2.34-1.162.979-2.297 2.1-3.404 3.36-1.105 1.261-2.142 2.572-3.109 3.931-.967 1.362-1.848 2.731-2.647 4.108s-1.478 2.646-2.039 3.806c-.168.366-.406.881-.715 1.543-.308.664-.644 1.412-1.008 2.241-.365.83-.75 1.685-1.156 2.562-.406.881-.777 1.711-1.113 2.49-.336.78-.637 1.475-.902 2.09-.268.613-.457 1.037-.569 1.27-.14.298-.371.861-.693 1.691s-.694 1.801-1.113 2.912c-.42 1.111-.862 2.281-1.325 3.51-.46 1.226-.896 2.389-1.302 3.484-.407 1.094-.764 2.057-1.071 2.887-.308.828-.506 1.393-.59 1.692-.279.863-.609 1.674-.986 2.44-.379.762-.812 1.434-1.303 2.016-.49.58-1.05 1.044-1.681 1.392-.631.35-1.338.523-2.121.523-1.01 0-1.842-.242-2.502-.722-.657-.481-.987-1.403-.987-2.762 0-.664.084-1.344.252-2.04.168-.697.379-1.387.631-2.066.252-.682.512-1.344.778-1.991.265-.648.511-1.269.734-1.867 1.514-3.318 3.055-6.644 4.623-9.98 1.568-3.334 3.074-6.635 4.518-9.904.3-.682.576-1.35.869-2.028-.088.086-.174.176-.26.26-1.822 1.76-3.635 3.31-5.442 4.654-1.808 1.344-3.601 2.414-5.378 3.211-1.78.795-3.51 1.194-5.192 1.194-1.148 0-2.107-.182-2.877-.547-.771-.366-1.386-.864-1.849-1.493-.463-.63-.793-1.377-.989-2.24-.066-.295-.107-.603-.15-.91-.492.383-.988.756-1.488 1.11-1.737 1.226-3.446 2.214-5.127 2.96-1.68.747-3.194 1.12-4.537 1.12-1.346 0-2.438-.448-3.28-1.344-.84-.895-1.259-2.422-1.259-4.578 0-1.528.224-3.303.671-5.326-.728 1.294-1.638 2.605-2.73 3.931-1.094 1.328-2.34 2.539-3.74 3.635-1.403 1.094-2.971 1.982-4.707 2.662-1.738.68-3.629 1.02-5.673 1.02-.925 0-1.814-.116-2.669-.348-.855-.233-1.604-.631-2.248-1.195-.645-.563-1.162-1.319-1.555-2.264-.392-.945-.588-2.133-.588-3.559 0-.033.056-.539.168-1.519.112-.979.469-2.522 1.072-4.629.602-2.106 1.534-4.836 2.793-8.188 1.262-3.351 3.041-7.416 5.338-12.193.588-1.262 1.268-2.166 2.037-2.713.772-.548 1.604-.822 2.5-.822.393 0 .799.059 1.219.174.422.117.813.299 1.178.548.363.249.658.565.883.946.222.381.336.82.336 1.318 0 .332-.043.649-.127.945-.141.567-.442 1.303-.902 2.215-.463.914-1.003 1.959-1.62 3.137-.615 1.178-1.267 2.447-1.953 3.809-.687 1.359-1.324 2.769-1.912 4.23s-1.093 2.945-1.513 4.455-.659 2.979-.714 4.405c0 .597.139 1.144.42 1.642.28.498.743.746 1.387.746 1.82 0 3.557-.598 5.211-1.791 1.652-1.195 3.178-2.68 4.58-4.455 1.401-1.775 2.668-3.684 3.803-5.725s2.08-3.906 2.836-5.599c.533-1.127 1.002-2.34 1.408-3.633.406-1.295.848-2.488 1.324-3.584.477-1.096 1.022-2.008 1.639-2.738.615-.729 1.387-1.095 2.31-1.095 1.01 0 1.807.382 2.397 1.145.588.764.881 1.676.881 2.737 0 .597-.188 1.42-.567 2.465s-.855 2.24-1.429 3.584c-.575 1.344-1.198 2.779-1.869 4.304-.672 1.528-1.297 3.078-1.869 4.655-.577 1.576-1.051 3.119-1.43 4.629-.379 1.509-.567 2.912-.567 4.205 0 1.195.616 1.793 1.848 1.793.869 0 1.947-.299 3.236-.897s2.641-1.435 4.055-2.514c.353-.269.709-.55 1.062-.845.395-1.629.858-3.135 1.397-4.504.98-2.59 1.975-5.16 2.984-7.715 1.008-2.555 1.932-4.895 2.774-7.019l12.732-32.104c.504-1.294 1.184-2.207 2.037-2.738.856-.53 1.717-.796 2.586-.796.867 0 1.658.282 2.373.846.715.565 1.073 1.477 1.073 2.738 0 .597-.12 1.228-.358 1.891-.238.664-.539 1.377-.904 2.14-.699 1.561-1.533 3.468-2.5 5.724-.967 2.257-2.004 4.713-3.11 7.367-1.107 2.655-2.242 5.417-3.404 8.287-1.162 2.871-2.297 5.666-3.404 8.387-1.105 2.722-2.143 5.3-3.11 7.74-.966 2.439-1.798 4.555-2.5 6.346-.308.763-.609 1.652-.902 2.664-.295 1.011-.441 1.916-.441 2.713 0 .496.084.894.252 1.193s.49.449.966.449c.588 0 1.323-.207 2.206-.623.882-.414 1.834-.963 2.857-1.643 1.024-.679 2.088-1.459 3.193-2.339 1.108-.879 2.207-1.791 3.299-2.737 1.094-.947 2.137-1.892 3.131-2.838.994-.945 1.885-1.816 2.67-2.613.184-.191.404-.326.646-.427.473-1.413.905-2.797 1.286-4.151.224-.598.533-1.443.925-2.539.391-1.096.84-2.174 1.344-3.236.504-1.061 1.073-1.983 1.701-2.762.631-.779 1.311-1.17 2.039-1.17 1.121 0 1.934.258 2.438.771.504.516.756 1.27.756 2.266 0 .199-.028.514-.084.945-.057.432-.125.889-.209 1.37-.084.48-.176.937-.274 1.369-.099.431-.189.746-.273.945 1.035-1.129 2.156-2.248 3.361-3.359 1.205-1.112 2.451-2.118 3.74-3.012 1.29-.897 2.606-1.625 3.952-2.192 1.343-.562 2.689-.845 4.033-.845.924 0 1.842.133 2.752.399.91.265 1.724.655 2.437 1.169.715.516 1.297 1.162 1.744 1.942.448.779.672 1.683.672 2.712 0 1.362-.342 2.813-1.029 4.356-.686 1.543-1.547 3.094-2.584 4.652-1.037 1.561-2.158 3.078-3.361 4.555-1.205 1.477-2.332 2.82-3.383 4.031-1.051 1.213-1.934 2.24-2.649 3.086-.712.848-1.086 1.42-1.113 1.719 0 .398.127.721.379.971.252.248.672.373 1.26.373.476 0 1.178-.266 2.101-.797.924-.531 2.221-1.451 3.887-2.762s3.783-3.07 6.346-5.277c1.758-1.512 3.816-3.315 6.135-5.366l11.114-102.929c-1.79.988-3.652 1.608-4.75 1.971-4.598 1.518-11.091 2.87-19.299 4.016zm-61.982-24.421c-48.048502 0-87 5.3723808-87 12 0 6.627619 38.951498 12 87 12s87-5.372381 87-12c0-6.6276192-38.951498-12-87-12zm34.738 15.507c0 1.555-4.629 2.816-10.34 2.816-5.71 0-10.339-1.261-10.339-2.816 0-1.556 4.629-2.817 10.339-2.817 5.711 0 10.34 1.261 10.34 2.817z"/><path d="m103.626755 99.2519937c-.051266.081735-.077755.1651954-.077755.2500063 0 1.007 3.727 1.822 8.323 1.822 4.597 0 8.323-.815 8.323-1.822l10.871-44.078 43.233046-45.64476104c.014116-.0139259.02777-.02833741.040954-.04323896.915-1.035-.942-4.238-4.023-6.985-3.081-2.747-6.408-3.677-7.442-2.631-.007729.00782283-.015267.01575616-.022617.02379912l-46.127383 48.53820088z"/></g></svg>

<?xml version="1.0" encoding="UTF-8" standalone="no"?>
<svg width="175px" height="387px" viewBox="0 0 175 387" version="1.1" xmlns="http://www.w3.org/2000/svg" xmlns:xlink="http://www.w3.org/1999/xlink" xmlns:sketch="http://www.bohemiancoding.com/sketch/ns">
    <!-- Generator: Sketch 3.0.3 (7891) - http://www.bohemiancoding.com/sketch -->
    <title>gulp</title>
    <desc>Created with Sketch.</desc>
    <defs></defs>
    <g id="Page-1" stroke="none" stroke-width="1" fill="none" fill-rule="evenodd" sketch:type="MSPage">
        <g id="gulp" sketch:type="MSArtboardGroup" fill="#DA4648">
            <g id="Gulp-Logo" sketch:type="MSLayerGroup" transform="translate(0.000000, 1.000000)">
                <path d="M86.72,303.739 C64.146,303.739 46.703,300.348 38.315,298.327 C32.579,296.945 27.973,295.515 24.474,294.046 L35.661,313.159 L40.037,372.878 C40.037,379.573 61.305,385 87.54,385 C113.775,385 135.043,379.573 135.043,372.878 L138.508,312.509 L149.093,293.99 C145.579,295.479 140.932,296.928 135.124,298.327 C126.736,300.348 109.293,303.739 86.72,303.739 Z M149.456,109.411 C132.888,111.725 110.899,113 87.54,113 C64.181,113 42.192,111.725 25.624,109.411 C17.417,108.265 10.924,106.913 6.325,105.395 C5.228,105.032 3.369,104.413 1.58,103.427 L11.845,197.9 C12.322,196.273 12.853,194.648 13.442,193.029 C14.647,189.711 16.041,186.467 17.623,183.298 C19.206,180.13 20.929,177.135 22.792,174.314 C24.654,171.494 26.637,168.897 28.738,166.524 C30.84,164.152 32.996,162.112 35.21,160.402 C37.423,158.694 39.657,157.358 41.912,156.396 C44.168,155.434 46.402,154.952 48.615,154.952 C51.164,154.952 53.63,155.649 56.012,157.043 C58.393,158.436 60.619,160.693 62.693,163.812 C63.169,164.509 63.471,165.214 63.596,165.927 C63.723,166.641 63.785,167.313 63.785,167.943 C63.785,169.436 63.428,170.615 62.714,171.477 C62,172.34 61.152,172.771 60.172,172.771 C59.274,172.771 58.441,172.298 57.671,171.353 C56.9,170.407 56.039,169.055 55.086,167.296 C54.189,165.703 53.202,164.551 52.124,163.837 C51.045,163.124 49.876,162.767 48.615,162.767 C46.654,162.767 44.56,163.58 42.333,165.206 C40.105,166.831 37.899,168.98 35.715,171.651 C33.529,174.323 31.435,177.375 29.432,180.81 C27.429,184.244 25.656,187.761 24.115,191.361 C22.574,194.963 21.35,198.514 20.439,202.014 C19.528,205.514 19.073,208.658 19.073,211.445 C19.073,212.375 19.137,213.33 19.262,214.307 C19.389,215.287 19.626,216.174 19.977,216.971 C20.326,217.768 20.803,218.422 21.405,218.935 C22.008,219.451 22.771,219.707 23.695,219.707 C24.732,219.707 25.908,219.359 27.226,218.662 C28.542,217.967 29.908,217.053 31.322,215.926 C32.737,214.797 34.159,213.52 35.588,212.092 C37.018,210.666 38.348,209.223 39.58,207.762 C40.812,206.303 41.905,204.9 42.857,203.557 C43.81,202.213 44.524,201.043 45.001,200.047 L48.909,188.35 C49.385,187.09 50.008,186.194 50.779,185.663 C51.549,185.132 52.341,184.866 53.154,184.866 C53.545,184.866 53.937,184.933 54.33,185.065 C54.723,185.198 55.072,185.406 55.381,185.687 C55.689,185.97 55.934,186.334 56.116,186.783 C56.298,187.23 56.389,187.753 56.389,188.35 C56.389,189.943 56.249,191.435 55.969,192.83 C55.689,194.225 55.332,195.584 54.897,196.912 C54.463,198.238 53.979,199.574 53.447,200.918 C52.915,202.262 52.396,203.664 51.893,205.125 C51.781,205.291 51.578,205.812 51.283,206.691 C50.989,207.572 50.633,208.676 50.212,210.002 C49.792,211.33 49.336,212.814 48.846,214.457 C48.355,216.1 47.852,217.775 47.334,219.484 C46.815,221.193 46.318,222.869 45.842,224.512 C45.365,226.154 44.937,227.639 44.56,228.967 C44.182,230.293 43.867,231.404 43.614,232.301 C43.362,233.197 43.208,233.727 43.152,233.895 C43.012,234.424 42.787,235.014 42.48,235.66 C42.172,236.307 41.808,236.922 41.387,237.502 C40.967,238.082 40.505,238.565 40,238.945 C39.496,239.326 38.978,239.518 38.445,239.518 C37.549,239.518 36.897,239.219 36.492,238.623 C36.085,238.025 35.883,236.93 35.883,235.338 L35.883,234.641 C35.883,234.408 35.896,234.158 35.924,233.895 C35.951,233.363 36.162,232.367 36.555,230.906 C36.947,229.447 37.416,227.797 37.963,225.955 C38.509,224.113 39.098,222.205 39.728,220.23 C40.357,218.256 40.925,216.49 41.43,214.93 C39.943,216.59 38.334,218.24 36.597,219.883 C34.859,221.525 33.08,223.002 31.26,224.312 C29.438,225.623 27.603,226.693 25.755,227.523 C23.906,228.352 22.127,228.768 20.418,228.768 C18.457,228.768 16.769,228.336 15.353,227.473 C15.098,227.316 14.857,227.141 14.617,226.967 L20.329,286.855 C21.816,290.582 49.81,299.739 86.72,299.739 C123.647,299.739 151.652,290.573 153.113,286.849 L161.318,215.647 C160.639,216.27 159.978,216.879 159.346,217.469 C156.992,219.658 154.771,221.541 152.684,223.117 C150.598,224.693 148.559,225.914 146.57,226.775 C144.58,227.639 142.451,228.07 140.182,228.07 C138.053,228.07 136.406,227.605 135.244,226.676 C134.082,225.748 133.5,224.471 133.5,222.844 L133.5,222.471 C133.5,222.355 133.514,222.213 133.543,222.047 C133.654,221.053 134.09,219.906 134.846,218.613 C135.602,217.318 136.512,215.975 137.576,214.582 C138.641,213.188 139.775,211.777 140.98,210.35 C142.185,208.924 143.299,207.572 144.322,206.293 C145.344,205.018 146.191,203.848 146.863,202.785 C147.537,201.723 147.873,200.861 147.873,200.197 C147.873,199.799 147.732,199.484 147.453,199.25 C147.172,199.02 146.709,198.902 146.066,198.902 C144.945,198.902 143.789,199.193 142.6,199.773 C141.408,200.353 140.23,201.135 139.068,202.113 C137.906,203.092 136.771,204.213 135.664,205.473 C134.559,206.734 133.522,208.045 132.555,209.404 C131.588,210.766 130.707,212.135 129.908,213.512 C129.109,214.889 128.43,216.158 127.869,217.318 C127.701,217.684 127.463,218.199 127.154,218.861 C126.846,219.525 126.51,220.273 126.146,221.102 C125.781,221.932 125.396,222.787 124.99,223.664 C124.584,224.545 124.213,225.375 123.877,226.154 C123.541,226.934 123.24,227.629 122.975,228.244 C122.707,228.857 122.518,229.281 122.406,229.514 C122.266,229.812 122.035,230.375 121.713,231.205 C121.391,232.035 121.019,233.006 120.6,234.117 C120.18,235.228 119.738,236.398 119.275,237.627 C118.815,238.853 118.379,240.016 117.973,241.111 C117.566,242.205 117.209,243.168 116.902,243.998 C116.594,244.826 116.396,245.391 116.312,245.69 C116.033,246.553 115.703,247.364 115.326,248.13 C114.947,248.892 114.514,249.564 114.023,250.146 C113.533,250.726 112.973,251.19 112.342,251.538 C111.711,251.888 111.004,252.061 110.221,252.061 C109.211,252.061 108.379,251.819 107.719,251.339 C107.062,250.858 106.732,249.936 106.732,248.577 C106.732,247.913 106.816,247.233 106.984,246.537 C107.152,245.84 107.363,245.15 107.615,244.471 C107.867,243.789 108.127,243.127 108.393,242.48 C108.658,241.832 108.904,241.211 109.127,240.613 C110.641,237.295 112.182,233.969 113.75,230.633 C115.318,227.299 116.824,223.998 118.268,220.729 C118.568,220.047 118.844,219.379 119.137,218.701 C119.049,218.787 118.963,218.877 118.877,218.961 C117.055,220.721 115.242,222.271 113.435,223.615 C111.627,224.959 109.834,226.029 108.057,226.826 C106.277,227.621 104.547,228.02 102.865,228.02 C101.717,228.02 100.758,227.838 99.988,227.473 C99.217,227.107 98.602,226.609 98.139,225.98 C97.676,225.35 97.346,224.603 97.15,223.74 C97.084,223.445 97.043,223.137 97,222.83 C96.508,223.213 96.012,223.586 95.512,223.94 C93.775,225.166 92.066,226.154 90.385,226.9 C88.705,227.647 87.191,228.02 85.848,228.02 C84.502,228.02 83.41,227.572 82.568,226.676 C81.728,225.781 81.309,224.254 81.309,222.098 C81.309,220.57 81.533,218.795 81.98,216.772 C81.252,218.066 80.342,219.377 79.25,220.703 C78.156,222.031 76.91,223.242 75.51,224.338 C74.107,225.432 72.539,226.32 70.803,227 C69.065,227.68 67.174,228.02 65.13,228.02 C64.205,228.02 63.316,227.904 62.461,227.672 C61.606,227.439 60.857,227.041 60.213,226.477 C59.568,225.914 59.051,225.158 58.658,224.213 C58.266,223.268 58.07,222.08 58.07,220.654 C58.07,220.621 58.126,220.115 58.238,219.135 C58.35,218.156 58.707,216.613 59.31,214.506 C59.912,212.4 60.844,209.67 62.103,206.318 C63.365,202.967 65.144,198.902 67.441,194.125 C68.029,192.863 68.709,191.959 69.478,191.412 C70.25,190.864 71.082,190.59 71.978,190.59 C72.371,190.59 72.777,190.649 73.197,190.764 C73.619,190.881 74.01,191.063 74.375,191.312 C74.738,191.561 75.033,191.877 75.258,192.258 C75.48,192.639 75.594,193.078 75.594,193.576 C75.594,193.908 75.551,194.225 75.467,194.521 C75.326,195.088 75.025,195.824 74.565,196.736 C74.102,197.65 73.562,198.695 72.945,199.873 C72.33,201.051 71.678,202.32 70.992,203.682 C70.305,205.041 69.668,206.451 69.08,207.912 C68.492,209.373 67.987,210.857 67.567,212.367 C67.147,213.877 66.908,215.346 66.853,216.772 C66.853,217.369 66.992,217.916 67.273,218.414 C67.553,218.912 68.016,219.16 68.66,219.16 C70.48,219.16 72.217,218.562 73.871,217.369 C75.523,216.174 77.049,214.689 78.451,212.914 C79.852,211.139 81.119,209.23 82.254,207.189 C83.389,205.148 84.334,203.283 85.09,201.59 C85.623,200.463 86.092,199.25 86.498,197.957 C86.904,196.662 87.346,195.469 87.822,194.373 C88.299,193.277 88.844,192.365 89.461,191.635 C90.076,190.906 90.848,190.54 91.771,190.54 C92.781,190.54 93.578,190.922 94.168,191.685 C94.756,192.449 95.049,193.361 95.049,194.422 C95.049,195.019 94.861,195.842 94.482,196.887 C94.103,197.932 93.627,199.127 93.053,200.471 C92.478,201.815 91.855,203.25 91.184,204.775 C90.512,206.303 89.887,207.853 89.315,209.43 C88.738,211.006 88.264,212.549 87.885,214.059 C87.506,215.568 87.318,216.971 87.318,218.264 C87.318,219.459 87.934,220.057 89.166,220.057 C90.035,220.057 91.113,219.758 92.402,219.16 C93.691,218.562 95.043,217.725 96.457,216.646 C96.81,216.377 97.166,216.096 97.519,215.801 C97.914,214.172 98.377,212.666 98.916,211.297 C99.896,208.707 100.891,206.137 101.9,203.582 C102.908,201.027 103.832,198.687 104.674,196.563 L117.406,164.459 C117.91,163.165 118.59,162.252 119.443,161.721 C120.299,161.191 121.16,160.925 122.029,160.925 C122.896,160.925 123.687,161.207 124.402,161.771 C125.117,162.336 125.475,163.248 125.475,164.509 C125.475,165.106 125.355,165.737 125.117,166.4 C124.879,167.064 124.578,167.777 124.213,168.54 C123.514,170.101 122.68,172.008 121.713,174.264 C120.746,176.521 119.709,178.977 118.603,181.631 C117.496,184.286 116.361,187.048 115.199,189.918 C114.037,192.789 112.902,195.584 111.795,198.305 C110.69,201.027 109.652,203.605 108.685,206.045 C107.719,208.484 106.887,210.6 106.185,212.391 C105.877,213.154 105.576,214.043 105.283,215.055 C104.988,216.066 104.842,216.971 104.842,217.768 C104.842,218.264 104.926,218.662 105.094,218.961 C105.262,219.26 105.584,219.41 106.06,219.41 C106.648,219.41 107.383,219.203 108.266,218.787 C109.148,218.373 110.1,217.824 111.123,217.144 C112.147,216.465 113.211,215.685 114.316,214.805 C115.424,213.926 116.523,213.014 117.615,212.068 C118.709,211.121 119.752,210.176 120.746,209.23 C121.74,208.285 122.631,207.414 123.416,206.617 C123.6,206.426 123.82,206.291 124.062,206.19 C124.535,204.777 124.967,203.393 125.348,202.039 C125.572,201.441 125.881,200.596 126.273,199.5 C126.664,198.404 127.113,197.326 127.617,196.264 C128.121,195.203 128.69,194.281 129.318,193.502 C129.949,192.723 130.629,192.332 131.357,192.332 C132.478,192.332 133.291,192.59 133.795,193.103 C134.299,193.619 134.551,194.373 134.551,195.369 C134.551,195.568 134.523,195.883 134.467,196.314 C134.41,196.746 134.342,197.203 134.258,197.684 C134.174,198.164 134.082,198.621 133.984,199.053 C133.885,199.484 133.795,199.799 133.711,199.998 C134.746,198.869 135.867,197.75 137.072,196.639 C138.277,195.527 139.523,194.521 140.812,193.627 C142.102,192.73 143.418,192.002 144.764,191.435 C146.107,190.873 147.453,190.59 148.797,190.59 C149.721,190.59 150.639,190.723 151.549,190.989 C152.459,191.254 153.273,191.644 153.986,192.158 C154.701,192.674 155.283,193.32 155.73,194.1 C156.178,194.879 156.402,195.783 156.402,196.812 C156.402,198.174 156.06,199.625 155.373,201.168 C154.687,202.711 153.826,204.262 152.789,205.82 C151.752,207.381 150.631,208.898 149.428,210.375 C148.223,211.852 147.096,213.195 146.045,214.406 C144.994,215.619 144.111,216.646 143.396,217.492 C142.684,218.34 142.31,218.912 142.283,219.211 C142.283,219.609 142.41,219.932 142.662,220.182 C142.914,220.43 143.334,220.555 143.922,220.555 C144.398,220.555 145.1,220.289 146.023,219.758 C146.947,219.227 148.244,218.307 149.91,216.996 C151.576,215.685 153.693,213.926 156.256,211.719 C158.014,210.207 160.072,208.404 162.391,206.353 L173.505,103.424 C171.715,104.412 169.853,105.032 168.755,105.395 C164.157,106.913 157.664,108.265 149.456,109.411 Z M87.474,84.99 C39.425498,84.99 0.474,90.3623808 0.474,96.99 C0.474,103.617619 39.425498,108.99 87.474,108.99 C135.522502,108.99 174.474,103.617619 174.474,96.99 C174.474,90.3623808 135.522502,84.99 87.474,84.99 Z M122.212,100.497 C122.212,102.052 117.583,103.313 111.872,103.313 C106.162,103.313 101.533,102.052 101.533,100.497 C101.533,98.941 106.162,97.68 111.872,97.68 C117.583,97.68 122.212,98.941 122.212,100.497 Z" id="Cup" sketch:type="MSShapeGroup"></path>
                <path d="M103.626755,99.2519937 C103.575489,99.3337287 103.549,99.4171891 103.549,99.502 C103.549,100.509 107.276,101.324 111.872,101.324 C116.469,101.324 120.195,100.509 120.195,99.502 L131.066,55.424 L174.299046,9.77923896 C174.313162,9.76531306 174.326816,9.75090155 174.34,9.736 C175.255,8.701 173.398,5.498 170.317,2.751 C167.236,0.004 163.909,-0.926 162.875,0.12 C162.867271,0.127822825 162.859733,0.13575616 162.852383,0.143799116 L116.725,48.682 L103.626755,99.2519937 Z" id="Straw" sketch:type="MSShapeGroup"></path>
            </g>
        </g>
    </g>
</svg>
